!!!OTL: 73. Gas-nign
!!!Genre:	Gas-nign
!!!Mode:	Minor
!!!Listening/dance:	listening
!!!:	*B-:
!!!One_Mode:	no
**kern
*thru
*I"P1
*clefG2
*k[b-e-]
*B-:
!LO:TX:a:i:t=Bb-major
8f
=20!|:
[4dd
16ddLL]
16a
(8qcc/
16b-)
16gJJ
=21
2f
=22
16b-LL
(16dd
16cc)
(16ee-JJ
16ddLL)
(16ff
16ee-)
(16ggJJ
=23
16dddLL)
(16aa
16bb-)
16ggJJ
(16ffLL
16dd)
16ee-
16ggJJ
=24
(8qgg/
16ffLL)
16ee-
16dd
16ccJJ
4b-
=25
(16ccLL
16f
16cc
16fJJ
16ccLL)
16ee-
16dd
16ccJJ
*>C1
=26
16ccLL
16b-JJ
4b-
8f
*>C
[4dd
16ddLL]
16a
(8qcc/
16b-)
16gJJ
=21
2f
=22
16b-LL
(16dd
16cc)
(16ee-JJ
16ddLL)
(16ff
16ee-)
(16ggJJ
=23
16dddLL)
(16aa
16bb-)
16ggJJ
(16ffLL
16dd)
16ee-
16ggJJ
=24
(8qgg/
16ffLL)
16ee-
16dd
16ccJJ
4b-
=25
(16ccLL
16f
16cc
16fJJ
16ccLL)
16ee-
16dd
16ccJJ
*>C2
=27:|!
16ccLL
16b-JJ
4b-
*>D
!!!End-Modulation
*-
